X: 3336
M: C
L: 1/8
K: D
uA2 |\
agfe dbag | f2d2 d2 :|
|: (fg) |\
agaf dafd | gfed dcBA |\
ceAe ceAe | ABcd efge |\
agaf dafd | gfed dcBA |\


